X: 142
Q: "Slowly"
M: 4/4
L: 1/8
K: F
"^1"c2 | A3 B c2 c2 | A3 B c2 d2 | c2 B2 A2 G2 | A6 ||
"^2"A2 | F3 G A A A A | F3 G A A B B |


